X: 23572
T: Lighthouse Keeper's
R: waltz
M: 3/4
K: Gmajor
d2 (3BcB G2|c3 B A2|G2 B2 d2|e2 ef g2|
(3ded B2 G2|(3efe d3 c|B c3 G2|A2 AB ce|
d3 B d2|c2 (3BcB A2|G2 B2 d2|e3 f g2|
d B3 G2|c A3 F2|G2 GF GA|G3||
e3 d c2|B d3 B2|A2 B2 c2|B g3 gf|
e3 d c2|B2 g2 G2|d3 B G2|A3 d gf|
e3 f g2|d3 f g2|e3 d c2|B d3 D2|
E3 c B2|A2 AG F2|G4 =F2|G3||

